app/result/img/heart-passive.svg

<svg width="27" height="24" viewBox="0 0 27 24" fill="none" xmlns="http://www.w3.org/2000/svg">
<path d="M13.0607 4.4566L13.5 5.26496L13.9393 4.45658C14.3656 3.67217 15.0815 2.61049 16.143 1.78395L15.8385 1.393L16.143 1.78395C17.2414 0.928554 18.4772 0.5 19.8281 0.5C23.6 0.5 26.5 3.60103 26.5 7.8326C26.5 10.0919 25.606 12.0143 23.9627 14.0108C22.3068 16.0227 19.9277 18.0663 17.0046 20.5745L17.3302 20.9539L17.0045 20.5745L17.0031 20.5757C16.0148 21.4237 14.8922 22.3871 13.725 23.4148L13.7247 23.415C13.6624 23.4699 13.5828 23.5 13.5 23.5C13.4172 23.5 13.3375 23.4699 13.2752 23.415L13.275 23.4149C12.1072 22.3866 10.9842 21.4229 9.995 20.5741L9.99482 20.5739L9.66922 20.9534L9.99481 20.5739C7.07203 18.066 4.69305 16.0226 3.03718 14.0107C1.39399 12.0143 0.5 10.0919 0.5 7.8326C0.5 3.60103 3.39998 0.5 7.17188 0.5C8.52283 0.5 9.75856 0.928554 10.857 1.78395L11.1642 1.38945L10.857 1.78395C11.9185 2.61048 12.6344 3.67221 13.0607 4.4566Z" fill="white" stroke="#BE1622"/>
</svg>

<svg width="27" height="24" viewBox="0 0 27 24" fill="none" xmlns="http://www.w3.org/2000/svg"><path d="M13.06 4.457l.44.808.44-.808c.426-.785 1.142-1.847 2.203-2.673l-.305-.391.305.39C17.241.93 18.477.501 19.828.501 23.6.5 26.5 3.601 26.5 7.833c0 2.259-.894 4.181-2.537 6.178-1.656 2.012-4.035 4.055-6.958 6.564l.325.379-.325-.38-.002.002c-.988.848-2.11 1.811-3.278 2.839a.34.34 0 0 1-.45 0 333.959 333.959 0 0 0-3.28-2.84v-.001l-.326.38.326-.38c-2.923-2.508-5.302-4.551-6.958-6.563C1.394 12.014.5 10.09.5 7.833.5 3.6 3.4.5 7.172.5c1.35 0 2.587.429 3.685 1.284l.307-.395-.307.395c1.062.826 1.777 1.888 2.204 2.673z" fill="#fff" stroke="#BE1622"/></svg>
